X:1427
T:Dan Mac's Polka
O:england
R:polka
M:2/4
L:1/8
K:D
DF AF/A/|dc Bc|EF GF/G/|BA F2|DF AF/A/|dc Bc|EF G/A/G/E/|DF D2:|
|:fA fA|fA f2|eB eB|B/c/d e2|fA fA|fA f>f|eB cd|1 ed d>e:|2 ed d2||


